components/img/newtab/topsites/close.svg

<svg height="12" viewBox="0 0 12 12" width="12" xmlns="http://www.w3.org/2000/svg"><path d="m10.7641251 10.2302779-4.23561083-4.23213643 4.23561083-4.23213645c.1469802-.14698977.1469802-.38530728 0-.53229705-.1469803-.14698978-.3852824-.14698978-.5322626 0l-4.2318625 4.23588501-4.23186248-4.23588501c-.09507956-.09508572-.23366103-.13222091-.36354212-.09741713-.12988109.03480379-.23132976.13625903-.2661313.26614853-.03480153.1298895.00233126.26847994.09741082.36356565l4.23561081 4.23213645-4.23561081 4.23213643c-.0709606.0703857-.11087492.1661976-.11087492.2661485 0 .099951.03991432.1957629.11087492.2661486.07038108.0709652.1661868.1108821.2661313.1108821s.19575021-.0399169.2661313-.1108821l4.23186248-4.23588505 4.2318625 4.23588505c.0703811.0709652.1661868.1108821.2661313.1108821s.1957502-.0399169.2661313-.1108821c.0709606-.0703857.1108749-.1661976.1108749-.2661486 0-.0999509-.0399143-.1957628-.1108749-.2661485z" fill="#373843" fill-rule="evenodd"/></svg>

<?xml version="1.0" encoding="UTF-8"?>
<svg width="12px" height="12px" viewBox="0 0 12 12" version="1.1" xmlns="http://www.w3.org/2000/svg" xmlns:xlink="http://www.w3.org/1999/xlink">
    <!-- Generator: Sketch 52.5 (67469) - http://www.bohemiancoding.com/sketch -->
    <title>minus</title>
    <desc>Created with Sketch.</desc>
    <g id="minus" stroke="none" stroke-width="1" fill="none" fill-rule="evenodd">
        <g id="essentials/close" stroke="#979797" stroke-width="0.75" fill="#373843">
            <path d="M10.7641251,10.2302779 L6.52851427,5.99814147 L10.7641251,1.76600502 C10.9111053,1.61901525 10.9111053,1.38069774 10.7641251,1.23370797 C10.6171448,1.08671819 10.3788427,1.08671819 10.2318625,1.23370797 L6,5.46959298 L1.76813752,1.23370797 C1.67305796,1.13862225 1.53447649,1.10148706 1.4045954,1.13629084 C1.27471431,1.17109463 1.17326564,1.27254987 1.1384641,1.40243937 C1.10366257,1.53232887 1.14079536,1.67091931 1.23587492,1.76600502 L5.47148573,5.99814147 L1.23587492,10.2302779 C1.16491432,10.3006636 1.125,10.3964755 1.125,10.4964264 C1.125,10.5963774 1.16491432,10.6921893 1.23587492,10.762575 C1.306256,10.8335402 1.40206172,10.8734571 1.50200622,10.8734571 C1.60195072,10.8734571 1.69775643,10.8335402 1.76813752,10.762575 L6,6.52668995 L10.2318625,10.762575 C10.3022436,10.8335402 10.3980493,10.8734571 10.4979938,10.8734571 C10.5979383,10.8734571 10.693744,10.8335402 10.7641251,10.762575 C10.8350857,10.6921893 10.875,10.5963774 10.875,10.4964264 C10.875,10.3964755 10.8350857,10.3006636 10.7641251,10.2302779 Z" id="Path" stroke="none"></path>
        </g>
    </g>
</svg>
